public/images/svg/icon-grow-wealth.svg

<svg fill="none" height="17" viewBox="0 0 12 17" width="12" xmlns="http://www.w3.org/2000/svg"><path d="m11 7c-1.64331 0-3.08856.80353-4 2.02747v-8.02747c0-.55225-.44727-1-1-1s-1 .44775-1 1v3.02747c-.91144-1.22394-2.35669-2.02747-4-2.02747h-1v2c0 2.76141 2.23859 5 5 5v6.1265c0 .5522.44727 1 1 1s1-.4478 1-1v-1.1265c2.76141 0 5-2.2386 5-5v-2z" fill="#181818"/></svg>

<svg width="12" height="17" viewBox="0 0 12 17" fill="none" xmlns="http://www.w3.org/2000/svg">
<path d="M11 7C9.35669 7 7.91144 7.80353 7 9.02747V1C7 0.44775 6.55273 0 6 0C5.44727 0 5 0.44775 5 1V4.02747C4.08856 2.80353 2.64331 2 1 2H0V4C0 6.76141 2.23859 9 5 9V15.1265C5 15.6787 5.44727 16.1265 6 16.1265C6.55273 16.1265 7 15.6787 7 15.1265V14C9.76141 14 12 11.7614 12 9V7H11Z" fill="#181818"/>
</svg>
